a.setBins(3)
a.setScale(10)
a.show()

noise(2,.5)
	.color(.83,.5,1)
	.mult(shape(1.75))
	.repeat(10,20)
	.modulate(osc(20))
	.diff(noise(2, .25))
	.saturate()
	.posterize()
	.colorama(1)
	.rotate(1,.25)
	.pixelate(()=>50/a.fft[0]*2, ()=>50/a.fft[0]*2)
	.modulate(voronoi(5).rotate(0,2).color(0,0,.5))
	.out(o0)
