a.setBins(3)
a.setScale (10)
a.show()

noise(2,.5)
	.color(1,0,1)
	.mult(shape(1.75))
	.modulate(osc(20))
	.diff(noise(2, .25))
  	.posterize()
	.colorama(1)
	.rotate(1,-.25)
  	.modulate(voronoi(5).rotate(0,2).color(.75,0,.9))
	.blend(voronoi(6).rotate(0,.25))
	.modulateScale(o0, 2)
	.pixelate(()=>500/a.fft[0], ()=>500/a.fft[0])
	.mult(shape(10).modulate(o0).rotate(0,1).scale(2))
  	.out(o0)
